Capture One styles/Architecture_Midday_BW_High_Contrast.costyle
<?xml version="1.0" encoding="utf-8"?>
<SL Engine="800">
  <E K="FilmCurve" V="CanonEOS5DMk3-Auto.fcrv" />
  <E K="Exposure" V="0.289" />
  <E K="BwBlue" V="-57.333" />
  <E K="BwYellow" V="-34.667" />
  <E K="BwRed" V="61.333" />
  <E K="BwCyan" V="-9.333" />
  <E K="BwMagenta" V="0.000" />
  <E K="BwGreen" V="-4.000" />
  <E K="BwEnabled" V="1" />
  <E K="Contrast" V="20.871" />
  <E K="Brightness" V="-37.333" />
  <E K="Saturation" V="1.333" />
  <E K="WhiteBalanceTint" V="0.231" />
  <E K="WhiteBalanceTemperature" V="5144.968" />
  <E K="ColorBalance" V="1.000;1.000;1.000" />
  <E K="ColorBalanceShadow" V="1.000;1.000;1.000" />
  <E K="ColorBalanceMidtone" V="1.000;0.942;0.887" />
  <E K="ColorBalanceHighlight" V="1.000;1.000;1.000" />
  <E K="Shadow" V="0.000;0.000;0.000;0.010" />
  <E K="Highlight" V="1.000;1.000;1.000;0.851" />
  <E K="TargetShadow" V="0.000;0.000;0.000;0.021" />
  <E K="TargetHighlight" V="1.000;1.000;1.000;1.000" />
  <E K="Midtone" V="0.000;0.000;0.000;0.000" />
  <E K="ShadowRecovery" V="17.333" />
  <E K="HighlightRecovery" V="74.000" />
  <E K="GradationCurve" V="0.000,0.000;1.000,1.000" />
  <E K="GradationCurveRed" V="0.000,0.000;1.000,1.000" />
  <E K="GradationCurveGreen" V="0.000,0.000;1.000,1.000" />
  <E K="GradationCurveBlue" V="0.000,0.000;1.000,1.000" />
  <E K="Name" V="Architecture_Midday_BW_High_Contrast" />
  <E K="UUID" V="8da16bee-84e2-4cfb-ab01-1ce911006bf0" />
  <E K="StyleSource" V="Styles" />
  <E K="LensGeoAbr" V="|104.0|1|0|0.00000" />
  <E K="LensLightFalloff" V="|67.2|1" />
  <E K="Vignetting" V="-0.160000|1|0|1" />
  <E K="Clarity" V="48.000" />
  <E K="ClarityStructure" V="21.333" />
  <E K="ClarityMethod" V="3" />
  <E K="ColorCorrections" V="1,1,0,0.000000,5.405420,0.000000,111.568092,91.859917,67.696487,-20.000000,20.000000,-20.000000,20.000000,20.000000,0.000000,0;1,1,0,0.000000,-63.513523,0.000000,39.470814,38.521397,40.089489,-20.000000,20.000000,-20.000000,20.000000,20.000000,0.000000,0;1,1,0,0.000000,21.621620,0.000000,75.175095,103.428017,138.673141,-20.000000,20.000000,-20.000000,20.000000,20.000000,0.000000,0;" />
</SL>