Capture One styles/Portrait_Vintage_3.costyle
<?xml version="1.0" encoding="utf-8"?>
<SL Engine="800">
  <E K="Exposure" V="-0.112" />
  <E K="Contrast" V="-1.737" />
  <E K="Brightness" V="5.066" />
  <E K="Saturation" V="-20.129" />
  <E K="Shadow" V="0.000;0.000;0.000;0.022" />
  <E K="Highlight" V="1.000;1.000;1.000;1.000" />
  <E K="Midtone" V="0.000;0.000;0.000;0.000" />
  <E K="ShadowRecovery" V="8.667" />
  <E K="HighlightRecovery" V="51.133" />
  <E K="GradationCurve" V="0.000,0.000;1.000,1.000" />
  <E K="GradationCurveRed" V="0.000,0.000;0.500,0.523;1.000,1.000" />
  <E K="GradationCurveGreen" V="0.000,0.000;1.000,1.000" />
  <E K="GradationCurveBlue" V="0.000,0.026;1.000,1.000" />
  <E K="Name" V="Portrait_Vintage_3" />
  <E K="UUID" V="1a577cb2-53a3-4ec5-ae20-b4ba33189e8b" />
  <E K="StyleSource" V="Styles" />
  <E K="ClarityStructure" V="17.333" />
  <E K="ColorCorrections" V="1,1,1,0.000000,0.000000,0.000000,127.000000,63.000000,119.000000,-28.822567,28.822567,-10000000.000000,10000000.000000,12.000000,0.000000,0;1,1,1,0.000000,0.000000,0.000000,67.000000,63.000000,127.000000,-21.978279,21.978279,-10000000.000000,10000000.000000,12.000000,0.000000,0;1,1,1,0.000000,0.000000,0.000000,63.000000,118.000000,127.000000,-22.322311,22.322311,-10000000.000000,10000000.000000,12.000000,0.000000,0;1,1,1,0.000000,0.000000,0.000000,69.000000,127.000000,63.000000,-38.925846,38.925846,-10000000.000000,10000000.000000,12.000000,0.000000,0;1,1,1,0.000000,0.000000,0.000000,127.000000,115.000000,63.000000,-13.542439,13.542439,-10000000.000000,10000000.000000,12.000000,0.000000,0;1,1,1,0.000000,0.000000,0.000000,127.000000,68.000000,63.000000,-18.408569,18.408569,-10000000.000000,10000000.000000,12.000000,0.000000,0;0,1,1,0.000000,0.000000,0.000000,0.000000,0.000000,0.000000,-8.000000,8.000000,-10000000.000000,10000000.000000,0.000000,0.000000,0;1,1,0,5.717964,6.522783,0.238303,209.000000,175.000000,155.000000,-20.000000,20.000000,-20.000000,20.000000,26.526253,0.000000,0;1,1,0,0.000000,50.000000,0.000000,204.182877,214.392990,223.715958,-20.000000,20.000000,-20.000000,20.000000,20.000000,0.000000,0;" />
</SL>